assets/logos/icons/chain.svg

<svg height="24" viewBox="0 0 24 24" width="24" xmlns="http://www.w3.org/2000/svg"><path d="m6.99999995 13v2h-.5c-2.5 0-4.5-2-4.5-4.5 0-2.50000003 2-4.50000003 4.5-4.50000003h4.99999995c2.5 0 4.5 2 4.5 4.50000003 0 2.5-2 4.5-4.5 4.5h-.5v-2h.5c1.4000001 0 2.5000001-1.1 2.5-2.5.0000001-1.40000001-1.0999999-2.50000002-2.5-2.50000003h-4.99999995c-1.39999998.00000001-2.49999999 1.10000002-2.5 2.50000003.00000001 1.4 1.10000002 2.5 2.5 2.5zm10.00000005-2v-2.00000002h.5c2.5 0 4.5 2.00000002 4.5 4.50000002s-2 4.5-4.5 4.5h-5c-2.50000002 0-4.50000002-2-4.50000002-4.5s2-4.50000002 4.50000002-4.50000002v2.00000002c-1.4 0-2.50000001 1.1-2.50000002 2.5.00000001 1.4 1.10000002 2.5 2.50000002 2.5h5c1.4 0 2.5-1.1 2.5-2.5s-1.1-2.5-2.5-2.5z" fill="#492f5c" fill-rule="evenodd"/></svg>

<svg xmlns="http://www.w3.org/2000/svg" xmlns:xlink="http://www.w3.org/1999/xlink" width="24" height="24" viewBox="0 0 24 24">
  <defs>
    <path id="chain-a" d="M6.99999995,13 L6.99999995,15 L6.49999995,15 C3.99999995,15 1.99999995,13 1.99999995,10.5 C1.99999995,7.99999997 3.99999995,5.99999997 6.49999995,5.99999997 L11.4999999,5.99999997 C13.9999999,5.99999997 15.9999999,7.99999997 15.9999999,10.5 C15.9999999,13 13.9999999,15 11.4999999,15 L10.9999999,15 L10.9999999,13 L11.4999999,13 C12.9,13 14,11.9 13.9999999,10.5 C14,9.09999999 12.9,7.99999998 11.4999999,7.99999997 L6.49999995,7.99999997 C5.09999997,7.99999998 3.99999996,9.09999999 3.99999995,10.5 C3.99999996,11.9 5.09999997,13 6.49999995,13 L6.99999995,13 Z M17,11 L17,8.99999998 L17.5,8.99999998 C20,8.99999998 22,11 22,13.5 C22,16 20,18 17.5,18 L12.5,18 C9.99999998,18 7.99999998,16 7.99999998,13.5 C7.99999998,11 9.99999998,8.99999998 12.5,8.99999998 L12.5,11 C11.1,11 9.99999999,12.1 9.99999998,13.5 C9.99999999,14.9 11.1,16 12.5,16 L17.5,16 C18.9,16 20,14.9 20,13.5 C20,12.1 18.9,11 17.5,11 L17,11 Z"/>
  </defs>
  <use fill="#492F5C" fill-rule="evenodd" xlink:href="#chain-a"/>
</svg>
